X: 5570
T: Bush Administration, The
R: reel
M: 4/4
K: Bdorian
Bfef BBb2|FBBd cAec|Bfef Bbba|g2 e/f/g afec|
Bfef BBb2|FBBd cAec|Bfef Bbba|g2 e/f/g afec||
dB B/B/B FBdB|c2AB cdec|dB B/B/B FBdB|c2 e/f/g afec|
dB B/B/B FBdB|c2AB cdec|Bfef Bbba|g2 e/f/g afec||

